X:1
T:6 Lieder, Op.19
T:Turm und Flut
T:6. Turm und Flut
T:Johanna Kinkel
T:Gottfried Kinkel
T:6 Lieder, Op.19 (für Alt oder Bariton) 
T:OpenScore (CC0)
T:OpenScore (CC0)
C:Johanna Kinkel
Z:Gottfried Kinkel
Z:OpenScore (CC0)
%%score ( 1 2 ) { ( 3 5 ) | ( 4 6 ) }
L:1/8
Q:1/4=71
M:4/4
K:Bb
V:1 treble nm="Singstimme\nVoice"
V:2 treble 
V:3 treble nm="Pianoforte"
V:5 treble 
V:4 bass 
V:6 bass 
V:1
"^Maestoso"!f! D | d2 cB A3 B | (G3 A) B2 z2 | B2 A B d3 c | (B4- BA B)c | d2 d2 d2 c B | e6 d c | %7
w: 1. Auf|star- kem * Klip- pen-|ran- * de|ra- get ein star- ker|Turm, _ _ _ weit-|schau- end ü- ber die|Lan- de, und|
w: 2. Was|frommt o * Flut dein|Tol- * len?|tau- send- * jäh- rig|Drohn? _ _ _ es|spricht ja dei- nem *|Rol- len der|
w: 3.        |Tod- mu- tig Well' an|Wel- * le|* * * krau- ses|Haupt, _ _ _ und|hat doch von der *|Stel- le ein|
w: 4.        |Da kommt die Nacht. Es|stür- * men|* * * Gei- ster|her, _ _ _ da|hebt * * * *|Tür- men das|
w: 5.        |Die ihr ver- traut den|Rif- * fen|bebt, die ihr dro- ben|haust, _ _ _ die|Flut hat euch er- *|grif- fen, mit|
 B2 cG _A2 BD | E6 z2 | E2 D E D2 C2 | B,4 z4 | DF B d cB AG | (d8 | d6) z d | ed cB BA B c | %15
w: trotzt so * stolz dem *|Sturm.|Un- ten so dumpf und|schwer|wälzt * sich das ew'- * ge *|Meer.|_ Die|Wo- * gen * ken- * nen nicht|
w: fes- te * Zwin- ger *|Hohn!|Früh bis zum A- bend-|rot|rollst * du in dei- * nen *|Tod.|_ Die|Wo- * gen * ken- * nen nicht|
w: Sand- korn * nur ge- *|raubt!|Stolz noch das Schloss sich|bläht,|Well' * an * Wel- * le ver-|geht.|_ Die|Wo- * gen * ken- * nen nicht|
w: stil- le, das e- wi- ge|Meer.|Tief in die Lu- ken|zischt|weiss * und * wü- * tig der|Gischt.|_ Die|Wo- * gen * ken- * nen nicht|
w: tau- send- * fing'- ri- ger|Faust.|Just um die Mit- ter-|nacht|ber- * stend der Turm * zer- *|kracht.|_ Die|Wo- * gen * ken- * nen nicht|
 dc BA AG AB | cB AG G^F G A | AG AB BA G^F | G4 G3 G | G3 G G2 G2 | G8 | z8 | z8 | z8 | %24
w: Rast * noch * Ruh, * die *|Wo- * gen * ken- * nen nicht|Rast * noch * Ruh, * sie *|wüh- len und|spü- len im- mer-|zu.||||
w: Rast * noch * Ruh, * die *|Wo- * gen * ken- * nen nicht|Rast * noch * Ruh, * sie *|wüh- len und|spü- len im- mer-|zu.||||
w: Rast * noch * Ruh, * die *|Wo- * gen * ken- * nen nicht|Rast * noch * Ruh, * sie *|wüh- len und|spü- len im- mer-|zu.||||
w: Rast * noch * Ruh, * die *|Wo- * gen * ken- * nen nicht|Rast * noch * Ruh, * sie *|wüh- len und|spü- len im- mer-|zu.||||
w: Rast * noch * Ruh, * die *|Wo- * gen * ken- * nen nicht|Rast * noch * Ruh, * sie *|wüh- len und|spü- len im- mer-|zu.||||
 !fermata!z4 z2 z :| %25
w: |
w: |
w: |
w: |
w: |
V:2
 z | d2 c B x4 | x4 x2 z B | B2 AB x4 | x8 | d2 x d d2 cB | x8 | B2 c G _A2 B D | x8 | x8 | x8 | %11
w: |||||||||||
w: ||dein|||||||||
w: ||zer-|schellt ihr *||||||||
w: ||vom|West die *||* em- por zu *||||||
 x2 Bd x2 A G | x8 | x8 | x8 | x8 | x8 | x8 | x8 | x8 | x8 | x8 | x8 | x8 | x7 :| %25
w: ||||||||||||||
w: ||||||||||||||
w: ||||||||||||||
w: ||||||||||||||
V:3
 z | (3B,DG (3BGD (3CD^F (3AFD | (3B,DG (3BGD!sfz! (3B,DG (3BGD | %3
w: |||
w: |||
 (3B,_D=E (3BED (3[B,=D]FB (3[C_E]FA | (3B,DF (3BFD (3CD^F (3AFD | (3B,DG (3BGD (3B,D_A (3BAD | %6
w: |||
w: |||
 (3EGB (3eBG (3E_Ac (3ecA | (3z EG (3z GE (3DF_A (3BAF | (3z B,G (3EB,G, (3z B,G, z2 | %9
w: |||
w: |||
[K:bass] [E,G,]/C/[E,G,]/C/ [E,G,]/C/[E,G,]/C/ [^F,A,]/C/[F,A,]/C/ [F,A,]/C/[F,A,]/C/ | %10
w: |
w: |
 [D,G,]/B,/[D,G,]/B,/ [D,G,]/B,/[D,G,]/B,/ [D,G,]/B,/[D,G,]/B,/ [D,G,]/B,/[D,G,]/B,/ | %11
w: |
w: |
 [D,F,]/B,/[D,F,]/B,/ [D,F,]/B,/[D,F,]/B,/ G,/C/G,/C/!<(! [G,A,]/^C/[G,A,]/C/ | %12
w: |
w: |
 ^F,/A,/D/^F/!<)![K:treble] A/F/D/C/ A/D/=B,/D/ G/D/_B,/D/ | %13
w: |
w: |
 ^F/D/A,/"_dim."^F,/ F/D/A,/F,/ =F/D/A,/=F,/ F/D/A,/F,/ | (3[CE]Gc (3[CE]Gc (3[CE]FA (3[CE]FA | %15
w: ||
w: ||
 (3[B,D]FB (3[B,D]FB (3[B,E]GB (3[B,E]GB | (3[CE]GA (3[CE]GA (3[CD]^FA (3[CD]FA | %17
w: ||
w: ||
 (3[B,D]GB (3[B,D]GB (3[CE]^FA (3[CD]FA |"_marcato." G4 G4 | F4 E4 | ([G=Bd]FED !>!DCDE) | %21
w: ||* 2||
w: ||* 1||
 (!>!EDC=B, !>!B,CDE) |"_calando." [=B,D]4 [CE]4 | (!>![=B,G]2 [DF]2) (!>![DF]2 [CE]2) | %24
w: |||
w: |||
 !fermata![=B,D]4 z2 z :| %25
w: |
w: |
V:4
 z |!p! !arpeggio!!wedge![G,,D,G,]2 z2 !arpeggio!!wedge![G,,D,A,]2 z2 | %2
 !arpeggio!!wedge![G,,D,G,]2 z2!ped! (3G,,B,,D, (3G,D,B,,!ped-up! | %3
!<(! !arpeggio!!wedge![_G,,B,,_D,_G,]2 z2!<)! !arpeggio![F,,B,,F,]2 !arpeggio![F,,C,F,]2 | %4
!f! [B,,,B,,]4!ped!!>(! (3D,,A,,D, (3^F,D,A,,!ped-up!!>)! | %5
 !arpeggio!!wedge![G,,B,,D,G,]2 z2!<(! !arpeggio!!wedge![F,,B,,F,]2 z2!<)! | %6
!f! !arpeggio!!wedge![E,,B,,E,G,]2 z2!>(! (3_A,,E,A, (3CA,E,!>)! | %7
 !arpeggio!!wedge![B,,E,G,B,]2 !wedge!B,2 !arpeggio!!wedge![B,,F,B,]2 B,2 | %8
"^dim." !arpeggio!!wedge![E,,G,,B,,E,]2 z2 E,2 (3E,B,,G,, |!p! [C,,C,]2 z2 [D,,D,]2 z2 | %10
 [G,,,G,,]2 z2!sfz! G,,,/B,,,/D,,/G,,/ F,,/E,,/D,,/C,,/ | [B,,,B,,]4 [E,,E,]4 | %12
 [D,,D,]2 [D,^F,]2 [D,G,]2 [D,,D,]2 |!f! [D,,D,]2 z2 [D,,A,,D,]2 z2 | %14
!p! [C,,C,]2 [E,,E,]2 [F,,F,]4 | [B,,,B,,]2 [D,,D,]2 [E,,E,]4 | [A,,,A,,]2 [C,,C,]2 [D,,D,]4 | %17
 !arpeggio![D,,G,,D,]4 !arpeggio![D,,A,,D,]4 | %18
 (3[G,,=B,,]D,G, (3[G,,B,,]D,G, (3[G,,C,]E,G, (3[G,,C,]E,G, | %19
 (3G,,D,G, (3G,,D,G, (3G,,C,G, (3G,,C,G, | %20
 (3[G,,=B,,]D,G, (3[G,,B,,]D,G, (3[G,,C,]E,G, (3[G,,C,]E,G, | %21
 (3[G,,D,]F,G, (3[G,,D,]F,G, (3[G,,C,]E,G, (3[G,,C,]E,G, | G,,4 G,,4 | G,,4 G,,4 | %24
 !fermata![G,,G,]4 z2 z :| %25
V:5
 x | x8 | x8 | x8 | x8 | x8 | x8 | x8 | x8 |[K:bass] x8 | x8 | x8 | x2[K:treble] A2 !>!A2 G2 | %13
 ^F2 F2 =F2 F2 | x8 | x8 | x8 | x8 | (gfed) (!>!dcde) | (!>!edc=B) (!>!Bcde) | x8 | x8 | x8 | x8 | %24
 x7 :| %25
V:6
 x | x8 | x8 | x8 | x8 | x8 | x8 | x8 | x8 | x8 | x8 | x8 | x8 | x8 | x8 | x8 | x8 | x8 | x8 | x8 | %20
 x8 | x8 | (G,F,E,D,) (!>!D,C,D,E,) | (!>!E,D,C,=B,,) (!>!B,,C,D,E,) | x7 :| %25

